app/quadraticlands/templates/quadraticlands/_inlinesvg/leaderboard.svg

<?xml version="1.0" encoding="utf-8"?>
<!-- Generator: Adobe Illustrator 25.0.1, SVG Export Plug-In . SVG Version: 6.00 Build 0)  -->
<svg version="1.1" id="Layer_1" xmlns="http://www.w3.org/2000/svg" xmlns:xlink="http://www.w3.org/1999/xlink" x="0px" y="0px"
	 width="64px" height="64px" viewBox="0 0 64 64" style="enable-background:new 0 0 64 64;" xml:space="preserve">
<style type="text/css">
	.st0{fill:none;stroke:#F35890;stroke-width:2;stroke-linecap:round;stroke-linejoin:round;stroke-miterlimit:10;}
	.st1{fill:none;stroke:#02E2AC;stroke-width:2;stroke-linecap:round;stroke-linejoin:round;stroke-miterlimit:10;}
</style>
<path class="st0" d="M31.9,4l-5,9.3h10L31.9,4z"/>
<path class="st0" d="M38.6,19.5H25.3l-4,7.5h21.3L38.6,19.5z"/>
<path class="st0" d="M45.2,32.9H18.6l-5,9.4h36.6L45.2,32.9z"/>
<path class="st0" d="M59.9,60l-6-11.2H10L4,60H59.9z"/>
<path class="st1" d="M18.5,13.7l5.4-9.6H4"/>
<path class="st1" d="M5,41.8l4.7-8.4H4"/>
<path class="st1" d="M59,41.8l-4.7-8.4H60"/>
<path class="st1" d="M12,27.6l4.7-8.4H4"/>
<path class="st1" d="M45.5,13.7l-5.4-9.6H60"/>
<path class="st1" d="M52,27.6l-4.7-8.4H60"/>
</svg>

<svg width="64" height="64" viewBox="0 0 64 64" fill="none" xmlns="http://www.w3.org/2000/svg">
<path d="M31.9 4L26.9 13.3H36.9L31.9 4Z" stroke="#F579A6" stroke-width="2" stroke-miterlimit="10" stroke-linecap="round" stroke-linejoin="round"/>
<path d="M38.6 19.5H25.3L21.3 27H42.6L38.6 19.5Z" stroke="#F579A6" stroke-width="2" stroke-miterlimit="10" stroke-linecap="round" stroke-linejoin="round"/>
<path d="M45.2 32.9H18.6L13.6 42.3H50.2L45.2 32.9Z" stroke="#F579A6" stroke-width="2" stroke-miterlimit="10" stroke-linecap="round" stroke-linejoin="round"/>
<path d="M59.9 60L53.9 48.8H10L4 60H59.9Z" stroke="#F579A6" stroke-width="2" stroke-miterlimit="10" stroke-linecap="round" stroke-linejoin="round"/>
<path d="M18.5 13.7L23.9 4.1H4" stroke="#5BF1CD" stroke-width="2" stroke-miterlimit="10" stroke-linecap="round" stroke-linejoin="round"/>
<path d="M5 41.8L9.7 33.4H4" stroke="#5BF1CD" stroke-width="2" stroke-miterlimit="10" stroke-linecap="round" stroke-linejoin="round"/>
<path d="M59 41.8L54.3 33.4H60" stroke="#5BF1CD" stroke-width="2" stroke-miterlimit="10" stroke-linecap="round" stroke-linejoin="round"/>
<path d="M12 27.6L16.7 19.2H4" stroke="#5BF1CD" stroke-width="2" stroke-miterlimit="10" stroke-linecap="round" stroke-linejoin="round"/>
<path d="M45.5 13.7L40.1 4.1H60" stroke="#5BF1CD" stroke-width="2" stroke-miterlimit="10" stroke-linecap="round" stroke-linejoin="round"/>
<path d="M52 27.6L47.3 19.2H60" stroke="#5BF1CD" stroke-width="2" stroke-miterlimit="10" stroke-linecap="round" stroke-linejoin="round"/>
</svg>
